X: 36865
T: Ships In The Night
R: slip jig
M: 9/8
K: Eminor
M:7/8
|:~g2 ed BAG|AA BA GED|EE GE DEG|AA GA Bde|
~g2 ed BAG|AA BA GED|EE GE DEG|AA GF DE2:|
|:~g2 ed Bde|~g2 ed Bge|ga aa gab|~a2 eg abe|
~g2 ed Bde|~g2 ed Bge|ga aa gab|~a2 ge de2:|

